communes/6291.svg

<?xml version="1.0" encoding="UTF-8" standalone="no"?>
<!-- Created with Inkscape (http://www.inkscape.org/) -->

<svg
   xmlns:dc="http://purl.org/dc/elements/1.1/"
   xmlns:cc="http://creativecommons.org/ns#"
   xmlns:rdf="http://www.w3.org/1999/02/22-rdf-syntax-ns#"
   xmlns:svg="http://www.w3.org/2000/svg"
   xmlns="http://www.w3.org/2000/svg"
   xmlns:sodipodi="http://sodipodi.sourceforge.net/DTD/sodipodi-0.dtd"
   xmlns:inkscape="http://www.inkscape.org/namespaces/inkscape"
   version="1.0"
   width="208.86046"
   height="244.65999"
   id="svg2780"
   inkscape:version="0.92.4 (5da689c313, 2019-01-14)"
   sodipodi:docname="SaasGrund-blazon.svg">
  <metadata
     id="metadata27">
    <rdf:RDF>
      <cc:Work
         rdf:about="">
        <dc:format>image/svg+xml</dc:format>
        <dc:type
           rdf:resource="http://purl.org/dc/dcmitype/StillImage" />
        <dc:title></dc:title>
      </cc:Work>
    </rdf:RDF>
  </metadata>
  <sodipodi:namedview
     pagecolor="#ffffff"
     bordercolor="#666666"
     borderopacity="1"
     objecttolerance="10"
     gridtolerance="10"
     guidetolerance="10"
     inkscape:pageopacity="0"
     inkscape:pageshadow="2"
     inkscape:window-width="3259"
     inkscape:window-height="1417"
     id="namedview25"
     showgrid="false"
     inkscape:zoom="2"
     inkscape:cx="-48.155475"
     inkscape:cy="99.937642"
     inkscape:window-x="-8"
     inkscape:window-y="-8"
     inkscape:window-maximized="1"
     inkscape:current-layer="svg2780"
     inkscape:measure-start="104.255,149.787"
     inkscape:measure-end="104.255,126.383"
     showguides="false"
     inkscape:object-paths="true"
     inkscape:snap-intersection-paths="true">
    <sodipodi:guide
       position="104.43024,205.10638"
       orientation="25.957447,0"
       id="guide7901"
       inkscape:locked="false" />
    <sodipodi:guide
       position="49.361702,126.17021"
       orientation="0,45.957446"
       id="guide7903"
       inkscape:locked="false" />
    <sodipodi:guide
       position="104.43024,126.17021"
       orientation="-117.48978,-103.43024"
       id="guide3633"
       inkscape:locked="false" />
  </sodipodi:namedview>
  <defs
     id="defs2782" />
  <path
     id="path4212-7"
     style="fill:#009645;fill-opacity:1;fill-rule:evenodd;stroke:#000000;stroke-width:1.99999988;stroke-linecap:butt;stroke-miterlimit:4;stroke-dashoffset:0;stroke-opacity:1"
     d="M 204.09935,159.00304 207.86045,1 C 138.90698,1 69.953503,1 1.000029,1 l 3.7611,158.00304 c 1.64138,68.95393 2.88226,67.30563 99.669111,84.64438 96.78685,-17.33875 98.02773,-15.69045 99.66911,-84.64438 z"
     inkscape:connector-curvature="0"
     sodipodi:nodetypes="sccscs" />
  <rect
     style="opacity:1;fill:#feeb00;fill-opacity:1;stroke:#000000;stroke-width:1;stroke-miterlimit:8.30769253;stroke-dasharray:none;stroke-dashoffset:4.57999992;stroke-opacity:1"
     id="rect30544"
     width="18.289299"
     height="27.831417"
     x="135.06619"
     y="60.290981" />
  <rect
     style="opacity:1;fill:#feeb00;fill-opacity:1;stroke:#000000;stroke-width:1;stroke-miterlimit:8.30769253;stroke-dasharray:none;stroke-dashoffset:4.57999992;stroke-opacity:1"
     id="rect30544-2"
     width="18.289299"
     height="27.831417"
     x="170.28658"
     y="60.290977" />
  <rect
     style="opacity:1;fill:#feeb00;fill-opacity:1;stroke:#000000;stroke-width:1;stroke-miterlimit:8.30769253;stroke-dasharray:none;stroke-dashoffset:4.57999992;stroke-opacity:1"
     id="rect30544-4"
     width="18.289299"
     height="27.831417"
     x="152.67638"
     y="18.454233" />
  <path
     id="path9987-9-9-4-6-0-1"
     style="opacity:1;fill:#ffffff;fill-opacity:1;stroke:#000000;stroke-width:0.99999994;stroke-miterlimit:20;stroke-dasharray:none;stroke-dashoffset:4.57999992;stroke-opacity:1"
     d="m 40.536113,1.077713 c 4.783597,9.951964 8.636429,20.47272 16.005018,28.842933 11.653153,13.237185 29.756109,18.43413 41.410479,31.67268 11.65436,13.23856 14.51452,31.85428 26.16766,45.091464 11.65316,13.23719 29.75611,18.43413 41.41047,31.67269 11.65437,13.23856 14.51451,31.85429 26.16766,45.09146 3.13616,3.56246 6.73946,6.54258 10.55849,9.25382 -2.4388,21.09231 -9.96452,28.50963 -26.13796,35.59358 -6.77663,-4.21927 -13.43562,-8.58493 -18.75212,-14.62411 -11.65315,-13.23718 -14.5133,-31.85288 -26.16767,-45.09145 C 119.54378,155.34223 101.44082,150.14528 89.78767,136.90809 78.13452,123.67092 75.27437,105.05521 63.62,91.816636 51.965641,78.578066 33.8627,73.381128 22.209531,60.143936 12.636726,49.269893 8.9976621,34.766246 1.5427698,22.595508 L 1.0000298,1.0000322 Z"
     inkscape:connector-curvature="0"
     sodipodi:nodetypes="csssssccsssssccc"
     inkscape:transform-center-x="183.70789"
     inkscape:transform-center-y="-244.70468" />
  <rect
     style="opacity:1;fill:#feeb00;fill-opacity:1;stroke:#000000;stroke-width:1;stroke-miterlimit:8.30769253;stroke-dasharray:none;stroke-dashoffset:4.57999992;stroke-opacity:1"
     id="rect30544-2-3"
     width="18.289299"
     height="27.831417"
     x="25.857656"
     y="100.48602" />
  <g
     id="g30744">
    <path
       sodipodi:nodetypes="ccccccc"
       inkscape:connector-curvature="0"
       d="M 67.75,214.01176 H 44.454168 v -42.907 L 67.75,147.80893 91.045833,171.10476 v 42.907 H 67.75"
       style="opacity:1;fill:#ffffff;fill-opacity:1;stroke:#000000;stroke-width:1;stroke-miterlimit:8.30769253;stroke-dasharray:none;stroke-dashoffset:4.57999992;stroke-opacity:1"
       id="path30642-4" />
    <path
       sodipodi:nodetypes="cc"
       inkscape:connector-curvature="0"
       id="path30644"
       d="m 67.75,146.07421 v -10.4388"
       style="opacity:1;fill:none;fill-opacity:1;stroke:#000000;stroke-width:2;stroke-miterlimit:8.30769253;stroke-dasharray:none;stroke-dashoffset:4.57999992;stroke-opacity:1" />
    <path
       sodipodi:nodetypes="ccc"
       inkscape:connector-curvature="0"
       d="M 64.114293,139.42325 H 67.75 71.385707"
       style="opacity:1;fill:none;fill-opacity:1;stroke:#000000;stroke-width:2;stroke-miterlimit:8.30769253;stroke-dasharray:none;stroke-dashoffset:4.57999992;stroke-opacity:1"
       id="path30646-8" />
    <rect
       y="170.78499"
       x="78.6875"
       height="7"
       width="3.25"
       id="rect30665"
       style="opacity:1;fill:#000000;fill-opacity:1;stroke:#000000;stroke-width:1;stroke-miterlimit:8.30769253;stroke-dasharray:none;stroke-dashoffset:4.57999992;stroke-opacity:1" />
    <path
       inkscape:connector-curvature="0"
       id="path30697"
       d="m 78.25,191.88601 v 22.12575"
       style="opacity:1;fill:none;fill-opacity:1;stroke:#000000;stroke-width:1;stroke-miterlimit:8.30769253;stroke-dasharray:none;stroke-dashoffset:4.57999992;stroke-opacity:1" />
    <path
       sodipodi:nodetypes="ccccccc"
       inkscape:connector-curvature="0"
       d="m 94.250223,171.10476 h -4.57939 L 67.75,149.18392 45.829168,171.10476 h -4.57939 L 67.75,144.60454 Z"
       style="opacity:1;fill:#ffffff;fill-opacity:1;stroke:#000000;stroke-width:1;stroke-miterlimit:8.30769253;stroke-dasharray:none;stroke-dashoffset:4.57999992;stroke-opacity:1"
       id="path30640-1" />
    <path
       sodipodi:nodetypes="cscsccc"
       inkscape:connector-curvature="0"
       d="m 70.890625,214.01176 v -14.46115 c 0,-1.6219 -1.866007,-3.14062 -3.140625,-3.14062 -1.274618,0 -3.140625,1.51872 -3.140625,3.14062 v 14.46115 l 3.140625,0 z"
       style="opacity:1;fill:#000000;fill-opacity:1;stroke:#000000;stroke-width:1;stroke-miterlimit:8.30769253;stroke-dasharray:none;stroke-dashoffset:4.57999992;stroke-opacity:1"
       id="path30663-8" />
    <rect
       transform="scale(-1,1)"
       y="170.78499"
       x="-56.8125"
       height="7"
       width="3.25"
       id="rect30665-8"
       style="opacity:1;fill:#000000;fill-opacity:1;stroke:#000000;stroke-width:1;stroke-miterlimit:8.30769253;stroke-dasharray:none;stroke-dashoffset:4.57999992;stroke-opacity:1" />
    <path
       sodipodi:nodetypes="ccccccc"
       inkscape:connector-curvature="0"
       d="m 81.406475,191.88601 h -4.57939 L 67.75,182.80892 58.672915,191.88601 H 54.093526 L 67.75,178.22954 Z"
       style="opacity:1;fill:none;fill-opacity:1;stroke:#000000;stroke-width:1;stroke-miterlimit:8.30769253;stroke-dasharray:none;stroke-dashoffset:4.57999992;stroke-opacity:1"
       id="path30640-1-9-1" />
    <path
       inkscape:connector-curvature="0"
       id="path30697-9"
       d="m 57.250001,191.88601 v 22.12575"
       style="opacity:1;fill:none;fill-opacity:1;stroke:#000000;stroke-width:1;stroke-miterlimit:8.30769253;stroke-dasharray:none;stroke-dashoffset:4.57999992;stroke-opacity:1" />
  </g>
  <path
     id="path4212-7-7"
     style="fill:none;fill-opacity:1;fill-rule:evenodd;stroke:#000000;stroke-width:1.99999988;stroke-linecap:butt;stroke-miterlimit:4;stroke-dashoffset:0;stroke-opacity:1"
     d="m 204.09935,159.00304 3.7611,-158.00304166 c -68.95347,0 -137.906947,0 -206.860421,0 L 4.761129,159.00304 c 1.64138,68.95393 2.88226,67.30563 99.669111,84.64438 96.78685,-17.33875 98.02773,-15.69045 99.66911,-84.64438 z"
     inkscape:connector-curvature="0"
     sodipodi:nodetypes="sccscs" />
</svg>

<?xml version="1.0" encoding="UTF-8"?>
<svg version="1.0" viewBox="0 0 208.86 244.66" xmlns="http://www.w3.org/2000/svg" xmlns:cc="http://creativecommons.org/ns#" xmlns:dc="http://purl.org/dc/elements/1.1/" xmlns:rdf="http://www.w3.org/1999/02/22-rdf-syntax-ns#">
<metadata>
<rdf:RDF>
<cc:Work rdf:about="">
<dc:format>image/svg+xml</dc:format>
<dc:type rdf:resource="http://purl.org/dc/dcmitype/StillImage"/>
<dc:title/>
</cc:Work>
</rdf:RDF>
</metadata>
<path d="m204.1 159 3.7611-158h-206.86l3.7611 158c1.6414 68.954 2.8823 67.306 99.669 84.644 96.787-17.339 98.028-15.69 99.669-84.644z" fill="#009645" fill-rule="evenodd" stroke="#000" stroke-width="2"/>
<rect x="135.07" y="60.291" width="18.289" height="27.831" fill="#feeb00" stroke="#000" stroke-dashoffset="4.58" stroke-miterlimit="8.3077"/>
<rect x="170.29" y="60.291" width="18.289" height="27.831" fill="#feeb00" stroke="#000" stroke-dashoffset="4.58" stroke-miterlimit="8.3077"/>
<rect x="152.68" y="18.454" width="18.289" height="27.831" fill="#feeb00" stroke="#000" stroke-dashoffset="4.58" stroke-miterlimit="8.3077"/>
<path d="m40.536 1.0777c4.7836 9.952 8.6364 20.473 16.005 28.843 11.653 13.237 29.756 18.434 41.41 31.673 11.654 13.239 14.515 31.854 26.168 45.091 11.653 13.237 29.756 18.434 41.41 31.673 11.654 13.239 14.515 31.854 26.168 45.091 3.1362 3.5625 6.7395 6.5426 10.558 9.2538-2.4388 21.092-9.9645 28.51-26.138 35.594-6.7766-4.2193-13.436-8.5849-18.752-14.624-11.653-13.237-14.513-31.853-26.168-45.091-11.654-13.239-29.757-18.436-41.41-31.673-11.653-13.237-14.513-31.853-26.168-45.091-11.654-13.239-29.757-18.436-41.41-31.673-9.5728-10.874-13.212-25.378-20.667-37.548l-0.54274-21.595z" fill="#fff" stroke="#000" stroke-dashoffset="4.58" stroke-miterlimit="20"/>
<rect x="25.858" y="100.49" width="18.289" height="27.831" fill="#feeb00" stroke="#000" stroke-dashoffset="4.58" stroke-miterlimit="8.3077"/>
<g stroke="#000" stroke-dashoffset="4.58" stroke-miterlimit="8.3077">
<path d="m67.75 214.01h-23.296v-42.907l23.296-23.296 23.296 23.296v42.907h-23.296" fill="#fff"/>
<path d="m67.75 146.07v-10.439" fill="none" stroke-width="2"/>
<path d="m64.114 139.42h7.2714" fill="none" stroke-width="2"/>
<rect x="78.688" y="170.78" width="3.25" height="7"/>
<path d="m78.25 191.89v22.126" fill="none"/>
<path d="m94.25 171.1h-4.5794l-21.921-21.921-21.921 21.921h-4.5794l26.5-26.5z" fill="#fff"/>
<path d="m70.891 214.01v-14.461c0-1.6219-1.866-3.1406-3.1406-3.1406s-3.1406 1.5187-3.1406 3.1406v14.461h3.1406z"/>
<rect transform="scale(-1,1)" x="-56.812" y="170.78" width="3.25" height="7"/>
<path d="m81.406 191.89h-4.5794l-9.0771-9.0771-9.0771 9.0771h-4.5794l13.656-13.656z" fill="none"/>
<path d="m57.25 191.89v22.126" fill="none"/>
</g>
<path d="m204.1 159 3.7611-158h-206.86l3.7611 158c1.6414 68.954 2.8823 67.306 99.669 84.644 96.787-17.339 98.028-15.69 99.669-84.644z" fill="none" stroke="#000" stroke-width="2"/>
</svg>
